X:51
T:Betty Blue. JJo8.051
%%VWML:JohnsonVol8-2184-p26-0
F:http://www.vwml.org/record/JohnsonVol8/2184/p26
Z:Transcribed by Simon Furey and Lewis Jones
Z:vmp.Simon Wilson 2013 www.village-music-project.org.uk
Z:Dance added by John Chambers 2017
M:C|
L:1/4
%Q:1/2=120
K:D
a>bag | f>edf | a>b a/g/f/e/ | d2d2 | a>bag | f>edf | a>baf | d2d2 :|
|:\
e>fed | c>BAc | e>fec | A2A2 | e>fed | c>BAc |
e>fec | A3a | A3a | A3a | AaAa | A2A2 | f>gfe |
d>cde | f>gfe | d2d2 | f>gfe | d>cdf | afge | d2d2 :|
W: The 1st Man foot it and half figure round
W:the 2d Man .| his Partner the same with the
W:2d Wo. :| the 1st and 2d Cu. foot it and turn
W:single, then clap 5 times 1st Cu. cross over & half
W:figure .| hands 4 round with the 3d Cu clap 5
W:times, then Right and Left with the top Cu. :|
W:
T:Demeple. JJo8.052, The
B:J.Johnson Choice Collection Vol 8 1758
Z:vmp.Simon Wilson 2013 www.village-music-project.org.uk
Z:Dance added by John Chambers 2017
T:Dimple,aka JJo8.052, The
M:C|
L:1/8
%Q:1/2=100
K:D
|: A | d2fd ecAc | BGEB AFDA | d2fd ea^gf | edcBA2A :|
|: A | B2G>BA2F>A | GGEGF2DA | B2G>B AdcB | AGFED2D :|
W: Three hands round with the
W:2d Man .| the same with the 2d
W:Wo. :| lead down two Cu. & cast
W:up one .| lead thro' the top & cast
W:off :| Foot Corners and turn :|
W:hey and turn your Partners .|
W:
